simplebot/plates.svg

<?xml version="1.0" encoding="UTF-8" standalone="no"?>
<!-- Created with Inkscape (http://www.inkscape.org/) -->

<svg
   xmlns:dc="http://purl.org/dc/elements/1.1/"
   xmlns:cc="http://creativecommons.org/ns#"
   xmlns:rdf="http://www.w3.org/1999/02/22-rdf-syntax-ns#"
   xmlns:svg="http://www.w3.org/2000/svg"
   xmlns="http://www.w3.org/2000/svg"
   xmlns:sodipodi="http://sodipodi.sourceforge.net/DTD/sodipodi-0.dtd"
   xmlns:inkscape="http://www.inkscape.org/namespaces/inkscape"
   width="744.09448"
   height="1052.3622"
   id="svg2"
   version="1.1"
   inkscape:version="0.48.3.1 r9886"
   sodipodi:docname="plates.svg"
   inkscape:export-filename="/home/fishera/dev/nodebotsau/base v2.1.png"
   inkscape:export-xdpi="96"
   inkscape:export-ydpi="96">
  <defs
     id="defs4" />
  <sodipodi:namedview
     id="base"
     pagecolor="#ffffff"
     bordercolor="#666666"
     borderopacity="1.0"
     inkscape:pageopacity="0.0"
     inkscape:pageshadow="2"
     inkscape:zoom="0.85839465"
     inkscape:cx="195.55735"
     inkscape:cy="401.40625"
     inkscape:document-units="mm"
     inkscape:current-layer="layer1"
     showgrid="true"
     showguides="true"
     inkscape:guide-bbox="true"
     inkscape:window-width="1366"
     inkscape:window-height="712"
     inkscape:window-x="0"
     inkscape:window-y="27"
     inkscape:window-maximized="1"
     units="mm"
     fit-margin-top="0"
     fit-margin-left="10"
     fit-margin-right="0"
     fit-margin-bottom="10"
     showborder="true">
    <inkscape:grid
       type="xygrid"
       id="grid2987"
       empspacing="5"
       visible="true"
       enabled="true"
       snapvisiblegridlinesonly="true"
       units="mm"
       spacingx="1mm"
       spacingy="1mm"
       dotted="false"
       originx="14.999997mm"
       originy="14.506087mm" />
  </sodipodi:namedview>
  <metadata
     id="metadata7">
    <rdf:RDF>
      <cc:Work
         rdf:about="">
        <dc:format>image/svg+xml</dc:format>
        <dc:type
           rdf:resource="http://purl.org/dc/dcmitype/StillImage" />
        <dc:title />
      </cc:Work>
    </rdf:RDF>
  </metadata>
  <g
     inkscape:label="Base plate"
     inkscape:groupmode="layer"
     id="layer1"
     transform="translate(53.149606,-51.399445)"
     style="display:inline">
    <path
       style="fill:#008751;fill-opacity:1;stroke:#000000;stroke-width:0.70866144;stroke-miterlimit:4;stroke-dasharray:none"
       d="m 177.15625,525.875 0,0.0312 -15.4375,0 0,15.46875 -96.53125,0 0,-15.1875 -47.09375,0 0,15.1875 -18.09375,0 0,495.37505 18.09375,0 0,14.8438 47.09375,0 0,-14.8438 97.78125,0 0,15.2188 14.28125,0 0.96875,0 15.25,0 1.125,0 14.15625,0 0,-15.2188 98.125,0 0,14.8438 47.0625,0 0,-14.8438 17.78125,0 0,-495.37505 -17.78125,0 0,-15.1875 -47.0625,0 0,15.1875 -98.9375,0 0,-15.5 -15.25,0 -0.25,0 z m 1.25,14.8125 15.28125,0 0,15.25 -15.28125,0 z m -153.25,24.78125 15.25,0 0,15.28125 -15.25,0 z m 306.46875,0 15.28125,0 0,15.25 -15.28105,0 z M 53.6875,589.3125 c 0.176557,-0.0179 0.349943,0 0.53125,0 2.900917,0 5.25,2.34908 5.25,5.25 0,2.90092 -2.349083,5.25 -5.25,5.25 -2.900919,0 -5.25,-2.34908 -5.25,-5.25 0,-2.71961 2.070389,-4.9813 4.71875,-5.25 z m -28.53125,29.96875 15.25,0 0,15.28125 -15.25,0 z m 306.46875,0 15.28125,0 0,15.25 -15.28125,0 z m -153.21875,1.4375 15.28125,0 0,15.25 -15.28125,0 z m 55.28125,22.46875 c 0.17656,-0.0179 0.34994,0 0.53125,0 2.90092,0 5.25,2.34908 5.25,5.25 0,2.90092 -2.34908,5.25 -5.25,5.25 -2.90092,0 -5.25,-2.34908 -5.25,-5.25 0,-2.71961 2.07039,-4.9813 4.71875,-5.25 z m 97.9375,29.90625 15.28125,0 0,15.25 -15.28125,0 z m -306.46875,0.0312 15.25,0 0,15.25 -15.25,0 z m 153.25,27.59375 15.28125,0 0,15.28125 -15.28125,0 z m 153.21875,26.1875 15.28125,0 0,15.25 -15.28125,0 z m -306.46875,0.0312 15.25,0 0,15.25 -15.25,0 z m 208.53125,15.09375 c 0.17656,-0.0179 0.34994,0 0.53125,0 2.90092,0 5.25,2.34908 5.25,5.25 0,2.90092 -2.34908,5.25 -5.25,5.25 -2.90092,0 -5.25,-2.34908 -5.25,-5.25 0,-2.71961 2.07039,-4.9813 4.71875,-5.25 z m -184.625,18.0625 c 0.176557,-0.0181 0.349943,0 0.53125,0 2.900917,0 5.25,2.38033 5.25,5.28125 0,2.90092 -2.349083,5.25 -5.25,5.25 -2.900919,0 -5.25,-2.34908 -5.25,-5.25 0,-2.71961 2.070389,-5.00912 4.71875,-5.28125 z m 282.5625,20.625 15.28125,0 0,15.25 -15.28125,0 z m -306.46875,0.0312 15.25,0 0,15.25 -15.25,0 z m 153.25,0 15.28125,0 0,15.25 -15.28125,0 z m 153.21875,53.78125 15.28125,0 0,15.25 -15.28125,0 z m -306.46875,0.0312 15.25,0 0,15.25 -15.25,0 z m 153.25,26.1875 15.28125,0 0,15.28125 -15.28125,0 z m 153.21875,27.59375 15.28125,0 0,15.28125 -15.28125,0 z m -306.46875,0.0312 15.25,0 0,15.25 -15.25,0 z m 153.25,52.40625 15.28125,0 0,15.28125 -15.28125,0 z m 153.21875,1.375 15.28125,0 0,15.28125 -15.28125,0 z m -306.46875,0.0312 15.25,0 0,15.25 -15.25,0 z m 0,53.8125 15.25,0 0,15.25 -15.25,0 z m 306.46875,0 15.28125,0 0,15.25 -15.28125,0 z m -153.21875,24.8125 15.28125,0 0,15.25 -15.28125,0 z"
       id="rect2992-7-6"
       inkscape:connector-curvature="0"
       sodipodi:nodetypes="cccccccccccccccccccccccccccccccccccccccccccccccccccccsssscccccccccccccccccsssscccccccccccccccccccccccccccssssccssssccccccccccccccccccccccccccccccccccccccccccccccccccccccccccccccccccccccc"
       transform="translate(-53.149606,51.399445)" />
    <rect
       style="fill:#f09798;fill-opacity:1;stroke:#000000;stroke-width:0.43937007;stroke-miterlimit:4;stroke-opacity:1;stroke-dasharray:none;display:inline"
       id="rect2999"
       width="15.506297"
       height="15.506297"
       x="230.86063"
       y="616.39307"
       ry="2.0130431e-06" />
    <rect
       style="fill:#f09798;fill-opacity:1;stroke:#000000;stroke-width:0.43937007;stroke-miterlimit:4;stroke-opacity:1;stroke-dasharray:none;display:inline"
       id="rect2999-5"
       width="15.506297"
       height="15.506297"
       x="230.86063"
       y="670.20929"
       ry="2.0130431e-06" />
    <rect
       style="fill:#f09798;fill-opacity:1;stroke:#000000;stroke-width:0.43937007;stroke-miterlimit:4;stroke-opacity:1;stroke-dasharray:none;display:inline"
       id="rect2999-52"
       width="15.506297"
       height="15.506297"
       x="230.86063"
       y="724.02545"
       ry="2.0130431e-06" />
    <rect
       style="fill:#f09798;fill-opacity:1;stroke:#000000;stroke-width:0.43937007;stroke-miterlimit:4;stroke-opacity:1;stroke-dasharray:none;display:inline"
       id="rect2999-0"
       width="15.506297"
       height="15.506297"
       x="230.86063"
       y="777.84167"
       ry="2.0130431e-06" />
    <rect
       style="fill:#f09798;fill-opacity:1;stroke:#000000;stroke-width:0.43937007;stroke-miterlimit:4;stroke-opacity:1;stroke-dasharray:none;display:inline"
       id="rect2999-32"
       width="15.506297"
       height="15.506297"
       x="230.86063"
       y="831.65784"
       ry="2.0130431e-06" />
    <rect
       style="fill:#f09798;fill-opacity:1;stroke:#000000;stroke-width:0.43937007;stroke-miterlimit:4;stroke-opacity:1;stroke-dasharray:none;display:inline"
       id="rect2999-2"
       width="15.506297"
       height="15.506297"
       x="230.86063"
       y="885.47406"
       ry="2.0130431e-06" />
    <rect
       style="fill:#f09798;fill-opacity:1;stroke:#000000;stroke-width:0.43937007;stroke-miterlimit:4;stroke-opacity:1;stroke-dasharray:none;display:inline"
       id="rect2999-4"
       width="15.506297"
       height="15.506297"
       x="230.86063"
       y="939.29022"
       ry="2.0130431e-06" />
    <rect
       style="fill:#f09798;fill-opacity:1;stroke:#000000;stroke-width:0.43937007;stroke-miterlimit:4;stroke-opacity:1;stroke-dasharray:none;display:inline"
       id="rect2999-9"
       width="15.506297"
       height="15.506297"
       x="230.86063"
       y="993.10645"
       ry="2.0130431e-06" />
    <rect
       style="fill:#f09798;fill-opacity:1;stroke:#000000;stroke-width:0.43937007;stroke-miterlimit:4;stroke-opacity:1;stroke-dasharray:none;display:inline"
       id="rect2999-07"
       width="15.506297"
       height="15.506297"
       x="230.86063"
       y="1046.9226"
       ry="2.0130431e-06" />
    <rect
       style="fill:#f09798;fill-opacity:1;stroke:#000000;stroke-width:0.43937007;stroke-miterlimit:4;stroke-opacity:1;stroke-dasharray:none;display:inline"
       id="rect2999-02"
       width="15.506297"
       height="15.506297"
       x="20.062204"
       y="616.39307"
       ry="2.0130431e-06" />
    <rect
       style="fill:#f09798;fill-opacity:1;stroke:#000000;stroke-width:0.43937007;stroke-miterlimit:4;stroke-opacity:1;stroke-dasharray:none;display:inline"
       id="rect2999-5-7"
       width="15.506297"
       height="15.506297"
       x="20.062204"
       y="670.20929"
       ry="2.0130431e-06" />
    <rect
       style="fill:#f09798;fill-opacity:1;stroke:#000000;stroke-width:0.43937007;stroke-miterlimit:4;stroke-opacity:1;stroke-dasharray:none;display:inline"
       id="rect2999-52-9"
       width="15.506297"
       height="15.506297"
       x="20.062204"
       y="724.02545"
       ry="2.0130431e-06" />
    <rect
       style="fill:#f09798;fill-opacity:1;stroke:#000000;stroke-width:0.43937007;stroke-miterlimit:4;stroke-opacity:1;stroke-dasharray:none;display:inline"
       id="rect2999-0-1"
       width="15.506297"
       height="15.506297"
       x="20.062204"
       y="777.84167"
       ry="2.0130431e-06" />
    <rect
       style="fill:#f09798;fill-opacity:1;stroke:#000000;stroke-width:0.43937007;stroke-miterlimit:4;stroke-opacity:1;stroke-dasharray:none;display:inline"
       id="rect2999-32-3"
       width="15.506297"
       height="15.506297"
       x="20.062204"
       y="831.6579"
       ry="2.0130431e-06" />
    <rect
       style="fill:#f09798;fill-opacity:1;stroke:#000000;stroke-width:0.43937007;stroke-miterlimit:4;stroke-opacity:1;stroke-dasharray:none;display:inline"
       id="rect2999-2-8"
       width="15.506297"
       height="15.506297"
       x="20.062204"
       y="885.47406"
       ry="2.0130431e-06" />
    <rect
       style="fill:#f09798;fill-opacity:1;stroke:#000000;stroke-width:0.43937007;stroke-miterlimit:4;stroke-opacity:1;stroke-dasharray:none;display:inline"
       id="rect2999-4-5"
       width="15.506297"
       height="15.506297"
       x="20.062204"
       y="939.29022"
       ry="2.0130431e-06" />
    <rect
       style="fill:#f09798;fill-opacity:1;stroke:#000000;stroke-width:0.43937007;stroke-miterlimit:4;stroke-opacity:1;stroke-dasharray:none;display:inline"
       id="rect2999-9-3"
       width="15.506297"
       height="15.506297"
       x="20.062204"
       y="993.10651"
       ry="2.0130431e-06" />
    <rect
       style="fill:#f09798;fill-opacity:1;stroke:#000000;stroke-width:0.43937007;stroke-miterlimit:4;stroke-opacity:1;stroke-dasharray:none;display:inline"
       id="rect2999-07-8"
       width="15.506297"
       height="15.506297"
       x="20.062204"
       y="1046.9226"
       ry="2.0130431e-06" />
  </g>
  <g
     inkscape:groupmode="layer"
     id="layer2"
     inkscape:label="Bumper plate"
     style="display:inline">
    <path
       inkscape:connector-curvature="0"
       style="fill:#97d6f0;fill-opacity:1;stroke:#000000;stroke-width:0.67725605;stroke-miterlimit:4;stroke-dasharray:none;display:inline"
       d="m 0.33862802,378.77749 0,141.75 372.09375198,0 0,-141.75 z m 17.02357698,112.35674 48.543307,0 0,15.15472 -48.543307,0 z m 143.503935,0 47.83465,0 0,15.15472 -47.83465,0 z m 145.27559,0 48.54331,0 0,15.15472 -48.54331,0 z"
       id="rect4618"
       sodipodi:nodetypes="cccccccccccccccccccc" />
    <rect
       style="fill:#f09798;fill-opacity:1;stroke:#000000;stroke-width:1.0407511;stroke-miterlimit:4;stroke-opacity:1;stroke-dasharray:none;display:inline"
       id="rect2999-96"
       width="140.69153"
       height="9.5891705"
       x="17.88258"
       y="464.69357"
       ry="1.2448758e-06" />
    <rect
       style="fill:#f09798;fill-opacity:1;stroke:#000000;stroke-width:1.0407511;stroke-miterlimit:4;stroke-opacity:1;stroke-dasharray:none;display:inline"
       id="rect2999-96-0"
       width="140.69153"
       height="9.5891705"
       x="17.88258"
       y="425.71719"
       ry="1.2448758e-06" />
    <rect
       style="fill:#f09798;fill-opacity:1;stroke:#000000;stroke-width:1.0407511;stroke-miterlimit:4;stroke-opacity:1;stroke-dasharray:none;display:inline"
       id="rect2999-96-6"
       width="140.69153"
       height="9.5891705"
       x="213.1188"
       y="464.69357"
       ry="1.2448758e-06" />
    <rect
       style="fill:#f09798;fill-opacity:1;stroke:#000000;stroke-width:1.0407511;stroke-miterlimit:4;stroke-opacity:1;stroke-dasharray:none;display:inline"
       id="rect2999-96-0-3"
       width="140.69153"
       height="9.5891705"
       x="213.1188"
       y="425.71719"
       ry="1.2448758e-06" />
  </g>
  <g
     inkscape:groupmode="layer"
     id="layer3"
     inkscape:label="Arduino outline"
     style="opacity:0.52263375;display:inline">
    <path
       style="fill:none;stroke:#000000;stroke-width:0.70866144;stroke-linecap:round;stroke-linejoin:round;stroke-miterlimit:4;stroke-opacity:1;stroke-dasharray:none"
       d="m 2.1259842,773.20674 232.2170658,0 0,-8.93144 8.93141,-8.93141 0,-116.10851 -8.93141,-8.93143 0,-40.19143 -4.46573,-4.46572 -227.7513358,2e-5 z"
       id="path3132"
       inkscape:connector-curvature="0"
       sodipodi:nodetypes="cccccccccc" />
  </g>
</svg>

<?xml version="1.0" encoding="UTF-8" standalone="no"?>
<!-- Created with Inkscape (http://www.inkscape.org/) -->

<svg
   xmlns:dc="http://purl.org/dc/elements/1.1/"
   xmlns:cc="http://creativecommons.org/ns#"
   xmlns:rdf="http://www.w3.org/1999/02/22-rdf-syntax-ns#"
   xmlns:svg="http://www.w3.org/2000/svg"
   xmlns="http://www.w3.org/2000/svg"
   xmlns:sodipodi="http://sodipodi.sourceforge.net/DTD/sodipodi-0.dtd"
   xmlns:inkscape="http://www.inkscape.org/namespaces/inkscape"
   width="744.09448"
   height="1052.3622"
   id="svg2"
   version="1.1"
   inkscape:version="0.48.3.1 r9886"
   sodipodi:docname="plates.png"
   inkscape:export-filename="/home/fishera/dev/nodebotsau/base v2.1.png"
   inkscape:export-xdpi="96"
   inkscape:export-ydpi="96">
  <defs
     id="defs4" />
  <sodipodi:namedview
     id="base"
     pagecolor="#ffffff"
     bordercolor="#666666"
     borderopacity="1.0"
     inkscape:pageopacity="0.0"
     inkscape:pageshadow="2"
     inkscape:zoom="3.4335786"
     inkscape:cx="336.53165"
     inkscape:cy="611.88478"
     inkscape:document-units="mm"
     inkscape:current-layer="layer2"
     showgrid="true"
     showguides="true"
     inkscape:guide-bbox="true"
     inkscape:window-width="1366"
     inkscape:window-height="712"
     inkscape:window-x="0"
     inkscape:window-y="27"
     inkscape:window-maximized="1"
     units="mm"
     fit-margin-top="0"
     fit-margin-left="10"
     fit-margin-right="0"
     fit-margin-bottom="10"
     showborder="true">
    <inkscape:grid
       type="xygrid"
       id="grid2987"
       empspacing="5"
       visible="true"
       enabled="true"
       snapvisiblegridlinesonly="true"
       units="mm"
       spacingx="1mm"
       spacingy="1mm"
       dotted="false"
       originx="14.999997mm"
       originy="14.506087mm" />
  </sodipodi:namedview>
  <metadata
     id="metadata7">
    <rdf:RDF>
      <cc:Work
         rdf:about="">
        <dc:format>image/svg+xml</dc:format>
        <dc:type
           rdf:resource="http://purl.org/dc/dcmitype/StillImage" />
        <dc:title></dc:title>
      </cc:Work>
    </rdf:RDF>
  </metadata>
  <g
     inkscape:label="Base plate"
     inkscape:groupmode="layer"
     id="layer1"
     transform="translate(53.149606,-51.399445)"
     style="display:inline">
    <path
       style="fill:#008751;fill-opacity:1;stroke:#000000;stroke-width:0.70866144;stroke-miterlimit:4;stroke-dasharray:none"
       d="M 177.15625 525.875 L 177.15625 525.90625 L 161.71875 525.90625 L 161.71875 541.375 L 65.1875 541.375 L 65.1875 526.1875 L 18.09375 526.1875 L 18.09375 541.375 L 0 541.375 L 0 1036.75 L 18.09375 1036.75 L 18.09375 1051.5938 L 65.1875 1051.5938 L 65.1875 1036.75 L 162.96875 1036.75 L 162.96875 1051.9688 L 177.25 1051.9688 L 178.21875 1051.9688 L 193.46875 1051.9688 L 194.59375 1051.9688 L 208.75 1051.9688 L 208.75 1036.75 L 306.875 1036.75 L 306.875 1051.5938 L 353.9375 1051.5938 L 353.9375 1036.75 L 371.71875 1036.75 L 371.71875 541.375 L 353.9375 541.375 L 353.9375 526.1875 L 306.875 526.1875 L 306.875 541.375 L 207.9375 541.375 L 207.9375 525.875 L 192.6875 525.875 L 192.4375 525.875 L 177.15625 525.875 z M 178.40625 540.6875 L 193.6875 540.6875 L 193.6875 555.9375 L 178.40625 555.9375 L 178.40625 540.6875 z M 73.21875 565 L 88.71875 565 L 88.71875 580.5 L 73.21875 580.5 L 73.21875 565 z M 284 565 L 299.53125 565 L 299.53125 580.5 L 284 580.5 L 284 565 z M 25.15625 565.46875 L 40.40625 565.46875 L 40.40625 580.75 L 25.15625 580.75 L 25.15625 565.46875 z M 331.625 565.46875 L 346.90625 565.46875 L 346.90625 580.71875 L 331.625 580.71875 L 331.625 565.46875 z M 53.6875 589.3125 C 53.864057 589.2946 54.037443 589.3125 54.21875 589.3125 C 57.119667 589.3125 59.46875 591.66158 59.46875 594.5625 C 59.46875 597.46342 57.119667 599.8125 54.21875 599.8125 C 51.317831 599.8125 48.96875 597.46342 48.96875 594.5625 C 48.96875 591.84289 51.039139 589.5812 53.6875 589.3125 z M 73.21875 618.8125 L 88.71875 618.8125 L 88.71875 634.3125 L 73.21875 634.3125 L 73.21875 618.8125 z M 284 618.8125 L 299.53125 618.8125 L 299.53125 634.3125 L 284 634.3125 L 284 618.8125 z M 25.15625 619.28125 L 40.40625 619.28125 L 40.40625 634.5625 L 25.15625 634.5625 L 25.15625 619.28125 z M 331.625 619.28125 L 346.90625 619.28125 L 346.90625 634.53125 L 331.625 634.53125 L 331.625 619.28125 z M 178.40625 620.71875 L 193.6875 620.71875 L 193.6875 635.96875 L 178.40625 635.96875 L 178.40625 620.71875 z M 233.6875 643.1875 C 233.86406 643.1696 234.03744 643.1875 234.21875 643.1875 C 237.11967 643.1875 239.46875 645.53658 239.46875 648.4375 C 239.46875 651.33842 237.11967 653.6875 234.21875 653.6875 C 231.31783 653.6875 228.96875 651.33842 228.96875 648.4375 C 228.96875 645.71789 231.03914 643.4562 233.6875 643.1875 z M 73.21875 672.625 L 88.71875 672.625 L 88.71875 688.125 L 73.21875 688.125 L 73.21875 672.625 z M 284 672.625 L 299.53125 672.625 L 299.53125 688.125 L 284 688.125 L 284 672.625 z M 331.625 673.09375 L 346.90625 673.09375 L 346.90625 688.34375 L 331.625 688.34375 L 331.625 673.09375 z M 25.15625 673.125 L 40.40625 673.125 L 40.40625 688.375 L 25.15625 688.375 L 25.15625 673.125 z M 178.40625 700.71875 L 193.6875 700.71875 L 193.6875 716 L 178.40625 716 L 178.40625 700.71875 z M 73.21875 726.4375 L 88.71875 726.4375 L 88.71875 741.9375 L 73.21875 741.9375 L 73.21875 726.4375 z M 284 726.4375 L 299.53125 726.4375 L 299.53125 741.9375 L 284 741.9375 L 284 726.4375 z M 331.625 726.90625 L 346.90625 726.90625 L 346.90625 742.15625 L 331.625 742.15625 L 331.625 726.90625 z M 25.15625 726.9375 L 40.40625 726.9375 L 40.40625 742.1875 L 25.15625 742.1875 L 25.15625 726.9375 z M 233.6875 742.03125 C 233.86406 742.01335 234.03744 742.03125 234.21875 742.03125 C 237.11967 742.03125 239.46875 744.38033 239.46875 747.28125 C 239.46875 750.18217 237.11967 752.53125 234.21875 752.53125 C 231.31783 752.53125 228.96875 750.18217 228.96875 747.28125 C 228.96875 744.56164 231.03914 742.29995 233.6875 742.03125 z M 49.0625 760.09375 C 49.239057 760.07565 49.412443 760.09375 49.59375 760.09375 C 52.494667 760.09375 54.84375 762.47408 54.84375 765.375 C 54.84375 768.27592 52.494667 770.625 49.59375 770.625 C 46.692831 770.625 44.34375 768.27592 44.34375 765.375 C 44.34375 762.65539 46.414139 760.36588 49.0625 760.09375 z M 73.21875 780.25 L 88.71875 780.25 L 88.71875 795.75 L 73.21875 795.75 L 73.21875 780.25 z M 284 780.25 L 299.53125 780.25 L 299.53125 795.75 L 284 795.75 L 284 780.25 z M 331.625 780.71875 L 346.90625 780.71875 L 346.90625 795.96875 L 331.625 795.96875 L 331.625 780.71875 z M 25.15625 780.75 L 40.40625 780.75 L 40.40625 796 L 25.15625 796 L 25.15625 780.75 z M 178.40625 780.75 L 193.6875 780.75 L 193.6875 796 L 178.40625 796 L 178.40625 780.75 z M 73.21875 834.0625 L 88.71875 834.0625 L 88.71875 849.59375 L 73.21875 849.59375 L 73.21875 834.0625 z M 284 834.0625 L 299.53125 834.0625 L 299.53125 849.59375 L 284 849.59375 L 284 834.0625 z M 331.625 834.53125 L 346.90625 834.53125 L 346.90625 849.78125 L 331.625 849.78125 L 331.625 834.53125 z M 25.15625 834.5625 L 40.40625 834.5625 L 40.40625 849.8125 L 25.15625 849.8125 L 25.15625 834.5625 z M 178.40625 860.75 L 193.6875 860.75 L 193.6875 876.03125 L 178.40625 876.03125 L 178.40625 860.75 z M 73.21875 887.90625 L 88.71875 887.90625 L 88.71875 903.40625 L 73.21875 903.40625 L 73.21875 887.90625 z M 284 887.90625 L 299.53125 887.90625 L 299.53125 903.40625 L 284 903.40625 L 284 887.90625 z M 331.625 888.34375 L 346.90625 888.34375 L 346.90625 903.625 L 331.625 903.625 L 331.625 888.34375 z M 25.15625 888.375 L 40.40625 888.375 L 40.40625 903.625 L 25.15625 903.625 L 25.15625 888.375 z M 178.40625 940.78125 L 193.6875 940.78125 L 193.6875 956.0625 L 178.40625 956.0625 L 178.40625 940.78125 z M 73.21875 941.71875 L 88.71875 941.71875 L 88.71875 957.21875 L 73.21875 957.21875 L 73.21875 941.71875 z M 284 941.71875 L 299.53125 941.71875 L 299.53125 957.21875 L 284 957.21875 L 284 941.71875 z M 331.625 942.15625 L 346.90625 942.15625 L 346.90625 957.4375 L 331.625 957.4375 L 331.625 942.15625 z M 25.15625 942.1875 L 40.40625 942.1875 L 40.40625 957.4375 L 25.15625 957.4375 L 25.15625 942.1875 z M 73.21875 995.53125 L 88.71875 995.53125 L 88.71875 1011.0312 L 73.21875 1011.0312 L 73.21875 995.53125 z M 284 995.53125 L 299.53125 995.53125 L 299.53125 1011.0312 L 284 1011.0312 L 284 995.53125 z M 25.15625 996 L 40.40625 996 L 40.40625 1011.25 L 25.15625 1011.25 L 25.15625 996 z M 331.625 996 L 346.90625 996 L 346.90625 1011.25 L 331.625 1011.25 L 331.625 996 z M 178.40625 1020.8125 L 193.6875 1020.8125 L 193.6875 1036.0625 L 178.40625 1036.0625 L 178.40625 1020.8125 z "
       transform="translate(-53.149606,51.399445)"
       id="rect2992-7-6" />
  </g>
  <g
     inkscape:groupmode="layer"
     id="layer2"
     inkscape:label="Bumper plate"
     style="display:inline">
    <path
       style="fill:#97d6f0;fill-opacity:1;stroke:#000000;stroke-width:0.67725605;stroke-miterlimit:4;stroke-dasharray:none;display:inline"
       d="M 0.34375 378.78125 L 0.34375 520.53125 L 372.4375 520.53125 L 372.4375 378.78125 L 0.34375 378.78125 z M 17.875 425.71875 L 158.5625 425.71875 L 158.5625 435.3125 L 17.875 435.3125 L 17.875 425.71875 z M 213.125 425.71875 L 353.8125 425.71875 L 353.8125 435.3125 L 213.125 435.3125 L 213.125 425.71875 z M 17.875 464.6875 L 158.5625 464.6875 L 158.5625 474.28125 L 17.875 474.28125 L 17.875 464.6875 z M 213.125 464.6875 L 353.8125 464.6875 L 353.8125 474.28125 L 213.125 474.28125 L 213.125 464.6875 z M 17.375 491.125 L 65.90625 491.125 L 65.90625 506.28125 L 17.375 506.28125 L 17.375 491.125 z M 160.875 491.125 L 208.6875 491.125 L 208.6875 506.28125 L 160.875 506.28125 L 160.875 491.125 z M 306.15625 491.125 L 354.6875 491.125 L 354.6875 506.28125 L 306.15625 506.28125 L 306.15625 491.125 z "
       id="rect4618" />
  </g>
  <g
     inkscape:groupmode="layer"
     id="layer3"
     inkscape:label="Arduino outline"
     style="opacity:0.52263375;display:inline">
    <path
       style="fill:none;stroke:#000000;stroke-width:0.70866144;stroke-linecap:round;stroke-linejoin:round;stroke-miterlimit:4;stroke-opacity:1;stroke-dasharray:none"
       d="m 2.1259842,773.20674 232.2170658,0 0,-8.93144 8.93141,-8.93141 0,-116.10851 -8.93141,-8.93143 0,-40.19143 -4.46573,-4.46572 -227.7513358,2e-5 z"
       id="path3132"
       inkscape:connector-curvature="0"
       sodipodi:nodetypes="cccccccccc" />
  </g>
</svg>
